icons/iOSHeartSlash.svg

<svg width="24" height="24" viewBox="0 0 24 24" fill="none" xmlns="http://www.w3.org/2000/svg">
<path d="M18.4463 20.6699C18.7275 20.9424 19.1758 20.9424 19.4395 20.6699C19.7031 20.3975 19.7119 19.958 19.4395 19.6855L3.55762 3.8125C3.28516 3.54004 2.83691 3.54004 2.56445 3.8125C2.30078 4.07617 2.30078 4.5332 2.56445 4.80566L18.4463 20.6699ZM20.9072 10.1846C20.9072 6.94141 18.666 4.69141 15.8623 4.69141C14.1133 4.69141 12.8037 5.6582 12.0127 7.09961C11.2393 5.6582 9.9209 4.69141 8.17188 4.69141C7.53027 4.69141 6.91504 4.80566 6.36133 5.03418L17.9365 16.6357C19.8262 14.5615 20.9072 12.3818 20.9072 10.1846ZM12.0127 21.1621C12.2412 21.1621 12.5752 20.9863 12.8477 20.8105C13.7178 20.248 14.5264 19.6768 15.2822 19.0879L3.70703 7.5127C3.33789 8.28613 3.11816 9.18262 3.11816 10.1846C3.11816 13.9375 6.27344 17.6465 11.1777 20.8105C11.4502 20.9863 11.7842 21.1621 12.0127 21.1621Z" fill="black"/>
</svg>

<svg xmlns="http://www.w3.org/2000/svg" viewBox="0 0 24 24">
  <path d="M18.446 20.67c.281.272.73.272.993 0a.703.703 0 000-.985L3.558 3.814a.706.706 0 00-.994 0 .722.722 0 000 .993L18.446 20.67zm2.461-10.485c0-3.244-2.241-5.494-5.045-5.494-1.749 0-3.058.967-3.85 2.409-.773-1.442-2.091-2.409-3.84-2.409-.642 0-1.257.115-1.81.343l11.575 11.602c1.89-2.074 2.97-4.254 2.97-6.451zm-8.894 10.977c.228 0 .562-.176.835-.351a33.858 33.858 0 002.434-1.723L3.707 7.513a6.158 6.158 0 00-.589 2.672c0 3.752 3.155 7.461 8.06 10.626.272.175.606.351.835.351z"/>
</svg>
